X: 28651
T: Musical Priest, The
R: reel
M: 4/4
K: Bminor
|FBBA BcdB|cBAc ecBA|FBBA BcdB|cBAc B2BA|
FBBA BcdB|cBAc ecBA|FAcB Adfd|ceac B2|
Bc|:d2dc dfed|(3cBA eA fAec|d2dc def^g|afec dBB2:|
b ~B3 b ~B3|cBAc ecBA|b ~B3 b ~B3|cBAc B2de|
(3fga ba baf^g|afec ABce|~d3e f^gaf|ecAc B2BA|

